icons/svg/brightness.svg

﻿<?xml version="1.0" encoding="utf-8"?>
<!DOCTYPE svg PUBLIC "-//W3C//DTD SVG 1.1//EN" "http://www.w3.org/Graphics/SVG/1.1/DTD/svg11.dtd">
<svg xmlns="http://www.w3.org/2000/svg" xmlns:xlink="http://www.w3.org/1999/xlink" version="1.1" baseProfile="full" width="24" height="24" viewBox="0 0 24.00 24.00" enable-background="new 0 0 24.00 24.00" xml:space="preserve">
	<path fill="#000000" fill-opacity="1" stroke-width="0.2" stroke-linejoin="round" d="M 3.99999,4.00001L 8.68633,4.00001L 12.0001,0.686277L 15.3138,4.00001L 20,4.00001L 20,8.68623L 23.3138,12L 20,15.3137L 20,20L 15.3137,20L 12,23.3137L 8.68633,20L 3.99999,20L 3.99999,15.3137L 0.686322,12L 3.99999,8.68634L 3.99999,4.00001 Z M 12,6L 12,18C 15.3137,18 18,15.3137 18,12C 18,8.6863 15.3137,6 12,6 Z "/>
</svg>

<svg xmlns="http://www.w3.org/2000/svg" version="1.1" baseProfile="full" width="24" height="24" viewBox="0 0 24.00 24.00" xml:space="preserve"><path fill="#000" fill-opacity="1" stroke-width=".2" stroke-linejoin="round" d="M4 4h4.686L12 .686 15.314 4H20v4.686L23.314 12 20 15.314V20h-4.686L12 23.314 8.686 20H4v-4.686L.686 12 4 8.686V4zm8 2v12c3.314 0 6-2.686 6-6s-2.686-6-6-6z"/></svg>
